X:1
T:Dallas, 77.77
T:Dallas, 77.77
T:Arranged from Luigi Cherubini by Lowell Mason
T:Public Domain Courtesy of the Cyber Hymnal™
C:Arranged from Luigi Cherubini by Lowell Mason
Z:Public Domain
Z:Courtesy of the Cyber Hymnal™
%%score ( 1 2 ) ( 3 4 )
L:1/8
M:3/4
K:D
V:1 treble 
V:2 treble 
V:3 bass 
V:4 bass 
V:1
 ([FA]2 [GB]2) [FA]2 | [Gc]4 [Fd]2 | ([GB]2 [FA]2) [EG]2 x | ([EG]2 [DF]2) z2 | %4
 ([FA]2 [GB]2) [FA]2 | [Gc]4 [Fd]2 | [FB]4 [E^G]2 | [EA]4 z2 | A4 [GA]2 | A4 [Dd]2 | %10
 (c2 e2) [Fd]2 | ([Fd]2 [Ec]2) z2 | [FA]2 [GB]2 [FA]2 | [Gc]4 [Fd]2 | [DF]4 [CE]2 | D6 |] %16
V:2
 x6 | x6 | x7 | x6 | x6 | x6 | x6 | x6 | (E2 F2) x2 | (F2 E2) x2 | G4 x2 | x6 | x6 | x6 | x6 | %15
 D6 |] %16
V:3
 [D,D]4 [D,D]2 | [A,,E]4 [B,,D]2 | D3 (z A,) [A,,A,]2 | [D,A,]4 z2 | [D,D]4 [D,D]2 | %5
 [A,,E]4 [B,,D]2 | [E,C]4 [E,B,]2 | [A,,C]4 z2 | (C2 D2) [A,E]2 | (D2 z [F,A,]2) x | A,4 [D,A,]2 | %11
 A,4 z2 | [D,D]4 [D,D]2 | [A,,E]4 [B,,D]2 | (D2 A,2) [A,,G,]2 | [D,F,]6 |] %16
V:4
 x6 | x6 | G,,2 A,,2 x3 | x6 | x6 | x6 | x6 | x6 | A,4 x2 | A,3 (C2 G,) | (E,2 C,2) x2 | A,4 x2 | %12
 x6 | x6 | A,,4 x2 | x6 |] %16

